X: 26591
T: Mick McGarry's
R: reel
M: 4/4
K: Amajor
A3 B cABc|ABBA FAEF|ABce f2ec|ABBc ddcB|
AEAB BccB|ABBA FAEF|ABce f2 ec|1 BAGB ABcB:|2 BAGB ABce||
a2 geff ec|ABBA FAEF|ABce ffec|ABBA Bcde|
a2 geff ec|ABBA FAEF|ABce ffec|BAGB ABcB:|

